client/public/img/game/shared/residues/airdrop_crate_residue.svg

<?xml version="1.0" encoding="UTF-8" standalone="no"?>
<!-- Created with Inkscape (http://www.inkscape.org/) -->

<svg
   width="125"
   height="125"
   viewBox="0 0 33.072917 33.072917"
   version="1.1"
   id="svg852"
   xmlns="http://www.w3.org/2000/svg"
   xmlns:svg="http://www.w3.org/2000/svg">
  <defs
     id="defs849" />
  <g
     id="layer1">
    <path
       id="rect846-5-6-2"
       style="fill:#4059bf;fill-opacity:1;stroke:#262673;stroke-width:0.529167;stroke-linecap:round;stroke-miterlimit:4;stroke-dasharray:none;stroke-opacity:1"
       d="M 17.928198,28.527179 3.1780273,20.011164 5.1998141,21.941819 2.4583563,21.320171 5.6315085,24.32795 1.6348427,22.774946 4.3124623,25.320429 0.79192762,24.14401 15.542098,32.660025 13.4317,29.930766 16.287422,31.08419 13.686753,28.937879 13.254111,28.030622 17.3509,29.52709 17.3594,29.51235 15.634049,27.910765 Z" />
    <path
       id="rect846-5-6-7"
       style="fill:#4059bf;fill-opacity:1;stroke:#262673;stroke-width:0.529167;stroke-linecap:round;stroke-miterlimit:4;stroke-dasharray:none;stroke-opacity:1"
       d="m 21.919722,13.017622 -16.45169,4.408216 4.4854083,-0.436347 -4.0365251,1.722733 4.9689828,-0.306267 -4.6141185,2.019508 0.00535,0.01999 4.9651325,-0.312799 -4.5390998,1.902775 16.4516898,-4.408217 -4.679326,0.220671 3.49662,-1.736884 -4.242607,0.561618 0.02884,-0.392585 2.891088,-1.193133 -0.161573,-0.613823 -0.860609,-0.03031 z" />
    <path
       id="rect846-5-6-0"
       style="fill:#4059bf;fill-opacity:1;stroke:#262673;stroke-width:0.529167;stroke-linecap:round;stroke-miterlimit:4;stroke-dasharray:none;stroke-opacity:1"
       d="m 19.048854,3.0536854 8.51536,14.7490356 -0.12027,-1.531234 0.912041,0.313598 0.130796,-0.85289 0.90194,0.351292 0.05541,-1.097077 0.849048,0.545364 -0.345008,-1.846631 1.748919,1.731458 -8.51536,-14.7490356 0.594498,2.837959 0.237899,1.688707 -0.528203,-0.100833 0.04734,0.570578 -2.079527,-2.414479 -0.987497,-0.416698 -0.18016,1.048204 z" />
    <g
       id="g1101-3"
       transform="rotate(74.588329,30.259766,-12.366979)"
       style="stroke-width:1.05833334;stroke-miterlimit:4;stroke-dasharray:none">
      <path
         d="m 55.546162,-0.4591578 v 8.0796003 l 3.5786,3.5785995 h 8.080102 V -0.4589578 Z"
         id="path869-6"
         style="fill:#7c776f;fill-opacity:1;stroke:#333333;stroke-width:1.05833334;stroke-linejoin:round;stroke-miterlimit:4;stroke-dasharray:none;stroke-opacity:1" />
      <circle
         transform="rotate(90)"
         cx="5.3699341"
         cy="-61.375511"
         r="1.6222"
         id="circle24-3-7"
         style="fill:#808080;stroke:#2e2e2e;stroke-width:1.05833334;stroke-linecap:round;stroke-linejoin:round;stroke-miterlimit:4;stroke-dasharray:none" />
    </g>
    <path
       id="rect846-5-6-9"
       style="fill:#4059bf;fill-opacity:1;stroke:#262673;stroke-width:0.529167;stroke-linecap:round;stroke-miterlimit:4;stroke-dasharray:none;stroke-opacity:1"
       d="m 18.85482,17.476571 8.515364,14.749042 -0.650123,-2.940796 1.747298,1.231949 -0.599428,-1.638827 0.643648,-0.220259 0.688595,1.179682 0.273313,-2.170819 2.029583,2.172947 -8.515363,-14.749042 -0.657694,0.728344 -0.251983,0.642178 2.285003,5.422689 -2.516657,-4.03596 -0.482702,-0.248464 -0.324895,0.636009 1.88296,3.958548 z" />
    <path
       id="rect846-5-6"
       style="fill:#4059bf;fill-opacity:1;stroke:#262673;stroke-width:0.529167;stroke-linecap:round;stroke-miterlimit:4;stroke-dasharray:none;stroke-opacity:1"
       d="m 22.203506,2.5008836 -4.407876,16.4504194 1.030684,-1.665615 0.05261,1.103462 0.246738,0.523201 0.845719,-1.800037 0.498471,0.585611 0.301156,-0.08441 -0.104324,1.965085 1.411346,-3.11763 0.198278,1.437836 0.128955,2.287645 L 26.813139,3.7360319 25.033174,7.1741698 25.461549,3.4242888 24.366447,5.4902385 23.485924,5.0933984 22.509354,6.6025233 23.0882,2.7379374 22.073115,5.173186 Z" />
    <g
       id="g1101"
       transform="rotate(40.167394,27.599914,-64.216659)"
       style="stroke-width:1.05833334;stroke-miterlimit:4;stroke-dasharray:none">
      <path
         d="m 55.546162,-0.4591578 v 8.0796003 l 3.5786,3.5785995 h 8.080102 V -0.4589578 Z"
         id="path869"
         style="fill:#7c776f;fill-opacity:1;stroke:#333333;stroke-width:1.05833334;stroke-linejoin:round;stroke-miterlimit:4;stroke-dasharray:none;stroke-opacity:1" />
      <circle
         transform="rotate(90)"
         cx="5.3699341"
         cy="-61.375511"
         r="1.6222"
         id="circle24-3"
         style="fill:#808080;stroke:#2e2e2e;stroke-width:1.05833334;stroke-linecap:round;stroke-linejoin:round;stroke-miterlimit:4;stroke-dasharray:none" />
    </g>
  </g>
</svg>

<svg xmlns="http://www.w3.org/2000/svg" width="125" height="125" viewBox="0 0 33.073 33.073"><path d="m17.928 28.527-14.75-8.516 2.022 1.93-2.742-.62 3.174 3.007-3.997-1.553 2.677 2.545-3.52-1.176 14.75 8.516-2.11-2.73 2.855 1.154-2.6-2.146-.433-.907 4.097 1.496.008-.015-1.725-1.601ZM21.92 13.018 5.468 17.426l4.485-.437-4.036 1.723 4.969-.306-4.614 2.02.005.02 4.965-.313-4.539 1.902 16.452-4.408-4.68.22 3.497-1.736-4.242.562.028-.393 2.891-1.193-.161-.614-.86-.03zM19.049 3.054l8.515 14.749-.12-1.532.912.314.13-.853.903.351.055-1.097.85.546-.346-1.847 1.75 1.732L23.181.667l.594 2.839.238 1.688-.528-.1.047.57-2.08-2.415-.987-.416-.18 1.048z" style="fill:#4059bf;fill-opacity:1;stroke:#262673;stroke-width:.529167;stroke-linecap:round;stroke-miterlimit:4;stroke-dasharray:none;stroke-opacity:1"/><g style="stroke-width:1.05833334;stroke-miterlimit:4;stroke-dasharray:none" transform="rotate(74.588 30.26 -12.367)"><path d="M55.546-.46v8.08l3.579 3.579h8.08V-.459Z" style="fill:#7c776f;fill-opacity:1;stroke:#333;stroke-width:1.05833334;stroke-linejoin:round;stroke-miterlimit:4;stroke-dasharray:none;stroke-opacity:1"/><circle cx="5.37" cy="-61.376" r="1.622" style="fill:gray;stroke:#2e2e2e;stroke-width:1.05833334;stroke-linecap:round;stroke-linejoin:round;stroke-miterlimit:4;stroke-dasharray:none" transform="rotate(90)"/></g><path d="m18.855 17.477 8.515 14.749-.65-2.941 1.747 1.232-.6-1.64.645-.22.688 1.18.273-2.17 2.03 2.172-8.515-14.749-.658.729-.252.642 2.285 5.423-2.517-4.036-.482-.249-.325.636 1.883 3.959z" style="fill:#4059bf;fill-opacity:1;stroke:#262673;stroke-width:.529167;stroke-linecap:round;stroke-miterlimit:4;stroke-dasharray:none;stroke-opacity:1"/><path d="m22.204 2.5-4.408 16.451 1.03-1.665.053 1.103.247.523.845-1.8.499.586.301-.084-.104 1.965 1.411-3.118.198 1.438.13 2.287 4.407-16.45-1.78 3.438.429-3.75-1.096 2.066-.88-.397-.977 1.51.58-3.865-1.016 2.435Z" style="fill:#4059bf;fill-opacity:1;stroke:#262673;stroke-width:.529167;stroke-linecap:round;stroke-miterlimit:4;stroke-dasharray:none;stroke-opacity:1"/><g style="stroke-width:1.05833334;stroke-miterlimit:4;stroke-dasharray:none" transform="rotate(40.167 27.6 -64.217)"><path d="M55.546-.46v8.08l3.579 3.579h8.08V-.459Z" style="fill:#7c776f;fill-opacity:1;stroke:#333;stroke-width:1.05833334;stroke-linejoin:round;stroke-miterlimit:4;stroke-dasharray:none;stroke-opacity:1"/><circle cx="5.37" cy="-61.376" r="1.622" style="fill:gray;stroke:#2e2e2e;stroke-width:1.05833334;stroke-linecap:round;stroke-linejoin:round;stroke-miterlimit:4;stroke-dasharray:none" transform="rotate(90)"/></g></svg>
